X: 4372
M: 2/4
L: 1/16
K: G
|:\
[1 B2Bc B2Bc | B2Bc (ed)cB |\
[2 B2Bc d2c2 | B2Bc d2c2 |
d4 d4- | d2B2e2d2 |\
c2cB c2cB | c2cB c4 |\
c4 c4- | c2A2d2c2 |\
|:\
defg fedc | Bcde dcBA |\


